X:1
T:Title
%%score 1 2 3 4
L:1/8
Q:1/4=76
M:3/4
K:G
V:1 treble 
V:2 treble 
V:3 treble 
V:4 bass 
V:1
 z4 G2 |[M:3/4] G4 d2 |[M:3/4] B2- BA G2 |[M:3/4] G2- GA B2 |[M:3/4] A4 B2 |[M:3/4] d4 c2 | %6
[M:3/4] B2 A4 |[M:3/4] G4 G2 |[M:3/4] G4 d2 |[M:3/4] B2- BA G2 |[M:3/4] G2- GA B2 |[M:3/4] A4 B2 | %12
[M:3/4] d4 c2 |[M:3/4] B2 A4 |[M:3/4] G4 B2 |[M:3/4] B2 c2 d2 |[M:3/4] d2- dc B2 |[M:3/4] A4 G2 | %18
[M:3/4] B4 c2 |[M:3/4] d4 c2 |[M:3/4] B4- B2 |[M:3/4] G4 B2 |[M:3/4] d4 c2 |[M:3/4] B4 A2 | %24
[M:3/4] G2- GA B2 |[M:3/4] A4 B2 |[M:3/4] d4 c2 |[M:3/4] B2 A4 |[M:3/4] G4 z2 |] %29
V:2
 z4 D2 |[M:3/4] D2 E2 D2 |[M:3/4] D4 B,2 |[M:3/4] ED EF G2 |[M:3/4] F4 G2 |[M:3/4] D2 E2 F2 | %6
[M:3/4] G4 F2 |[M:3/4] D4 D2 |[M:3/4] D2 E2 D2 |[M:3/4] D4 B,2 |[M:3/4] ED EF G2 |[M:3/4] F4 G2 | %12
[M:3/4] D2 E2 F2 |[M:3/4] G4 F2 |[M:3/4] D4 G2- |[M:3/4] GF EF G2- |[M:3/4] GA GF G2 | %17
[M:3/4] F4 E2 |[M:3/4] E2 FG A2 |[M:3/4] A2 G2- GF |[M:3/4] G4 =F2 |[M:3/4] E4 G2 | %22
[M:3/4] A2- AG F2 |[M:3/4] G4 F2 |[M:3/4] FE EF G2 |[M:3/4] F4 G2 |[M:3/4] A4 GF |[M:3/4] G4 F2 | %28
[M:3/4] D4 z2 |] %29
V:3
 z4 B,2 |[M:3/4] B,2 CB, A,2 |[M:3/4] G,2 F,2 G,2 |[M:3/4] CB, C2 D2 |[M:3/4] D4 D2 | %5
[M:3/4] A,2 B,2 C2 |[M:3/4] D2 E2 DC |[M:3/4] B,4 B,2 |[M:3/4] B,2 CB, A,2 |[M:3/4] G,2 F,2 G,2 | %10
[M:3/4] CB, C2 D2 |[M:3/4] D4 D2 |[M:3/4] A,2 B,2 C2 |[M:3/4] D2 E2 DC |[M:3/4] B,4 D2 | %15
[M:3/4] D2 C2 B,A, |[M:3/4] B,C D2 D2 |[M:3/4] D4 B,2 |[M:3/4] G,2 B,2 E2 |[M:3/4] D4 D2 | %20
[M:3/4] D4- D2 |[M:3/4] C4 D2 |[M:3/4] DC B,2 C2 |[M:3/4] D4 DC |[M:3/4] B,2 C2 D2 |[M:3/4] D4 D2 | %26
[M:3/4] D4 E2 |[M:3/4] E4 DC |[M:3/4] B,4 z2 |] %29
V:4
 z4 G,,2 |[M:3/4] G,2 E,2 F,2 |[M:3/4] G,2 D,2 E,2 |[M:3/4] C,2 B,,A,, G,,2 |[M:3/4] D,4 G,,2 | %5
[M:3/4] F,,2 G,,2 A,,2 |[M:3/4] B,,2 C,2 D,2 |[M:3/4] G,,4 G,,2 |[M:3/4] G,2 E,2 F,2 | %9
[M:3/4] G,2 D,2 E,2 |[M:3/4] C,2 B,,A,, G,,2 |[M:3/4] D,4 G,,2 |[M:3/4] F,,2 G,,2 A,,2 | %13
[M:3/4] B,,2 C,2 D,2 |[M:3/4] G,,4 G,,2 |[M:3/4] G,,2 A,,2 B,,2 |[M:3/4] B,,2- B,,A,, G,,2 | %17
[M:3/4] D,4 E,2- |[M:3/4] E,2 D,2 C,2 |[M:3/4] B,,2- B,,C, D,2 |[M:3/4] G,,A,, B,,2 G,,2 | %21
[M:3/4] C,4 G,,2 |[M:3/4] F,,2 G,,2 A,,2 |[M:3/4] B,,2 G,,2 D,2 |[M:3/4] E,D, C,B,, A,,G,, | %25
[M:3/4] D,4 G,2- |[M:3/4] G,2 F,2 E,2 |[M:3/4] E,D, C,2 D,2 |[M:3/4] G,,4 z2 |] %29

